X:58
T: Melodia instrumentalna
N: K0054t
O: od Pragi (Grochow)
R: taneczna]
M: 3/4
L: 1/8
K: C
g6 | g6 |
(3GABc2d2 | e2c2e2 | e2g2e2 | dgd2dB |
(3GABc2d2 | e2c2e2 | GBd2cA | GBdBed |
GBd2cA | GBdBed | (3Bcdc2cA | G2G4 |
egf2fd | ccB2G2 | egf2fd | (3ce^fg4
eg=f2fd | ccB2G2 | (3Bcdc2cA | GBdBed |
(3Bcdc2cA | GBdBed | (3Bcdc2cA | G2G4 |

@@@ Tune index: 3202
